P3
16 16
255
255 0 0
159 0 27
63 0 83
223 0 103
127 0 113
31 0 120
191 0 124
95 0 127
254 0 129
159 0 131
63 0 132
222 0 133
127 0 134
31 0 135
190 0 136
95 0 137
255 0 128
158 214 132
61 231 135
220 35 137
123 62 139
26 10 140
185 183 141
88 167 142
246 252 143
150 105 144
53 116 145
211 0 145
115 118 146
18 107 146
176 252 146
80 165 147
255 0 148
157 231 149
59 62 150
217 183 151
119 252 152
21 116 153
179 118 153
81 252 154
238 181 154
141 63 154
43 232 155
200 252 155
103 24 155
5 194 156
162 69 156
65 3 156
255 0 161
156 35 161
57 183 162
214 105 162
115 118 163
16 165 163
173 63 163
74 213 163
230 24 164
132 243 164
33 3 164
189 254 164
91 2 165
247 245 165
148 21 165
50 216 165
255 0 171
155 62 172
55 252 172
211 118 172
111 181 172
11 232 173
167 24 173
67 69 173
222 140 173
123 2 173
23 190 173
178 4 173
79 59 174
234 251 174
134 122 174
35 177 174
255 0 181
154 10 181
53 116 182
208 165 182
107 232 182
6 221 182
161 3 182
60 145 182
214 190 182
114 216 182
13 188 183
167 0 183
67 177 183
222 210 183
121 197 183
20 156 183
255 0 191
153 183 191
51 118 191
205 63 191
103 24 191
1 3 192
155 2 192
53 21 192
206 59 192
105 112 192
3 177 192
156 248 192
55 64 192
209 131 192
107 186 192
5 227 192
255 0 201
152 167 201
49 252 201
202 213 201
99 69 201
251 145 202
149 21 202
46 11 202
198 122 202
96 42 202
248 197 202
145 254 202
43 186 202
196 27 202
93 108 202
245 7 202
255 0 212
151 252 212
47 181 212
199 24 212
95 140 212
246 190 212
143 59 212
39 122 212
190 234 212
87 64 212
238 1 212
134 9 212
31 250 212
183 172 212
79 28 212
230 148 212
255 0 223
150 105 223
45 63 223
196 243 223
91 2 223
241 216 223
137 112 223
32 42 223
182 64 223
78 94 223
228 227 223
124 0 223
19 236 223
170 79 223
65 84 223
215 22 223
255 0 234
149 116 235
43 232 235
193 3 235
87 190 235
236 188 235
131 177 235
25 197 235
174 1 235
69 227 235
218 125 235
113 243 235
7 148 235
157 17 235
51 249 235
201 72 235
255 0 247
148 0 247
41 252 248
190 254 248
83 4 248
231 0 248
125 248 248
18 254 248
166 9 248
60 0 248
209 243 248
102 254 248
250 13 248
144 0 248
37 239 248
186 254 248
255 0 7
147 118 7
39 24 7
187 2 7
79 59 7
226 177 7
119 64 7
11 186 7
158 250 7
51 236 7
199 148 7
91 13 7
238 129 7
131 30 7
23 0 7
171 50 7
255 0 23
146 107 23
37 194 23
184 245 23
75 251 23
221 210 23
113 131 23
4 27 23
150 172 23
42 79 23
189 17 23
80 0 23
226 30 23
118 101 23
9 201 23
156 55 23
255 0 41
145 252 41
35 69 41
181 21 41
71 122 41
216 197 41
107 186 41
252 108 41
142 28 41
33 84 41
179 249 41
69 239 41
215 0 41
105 201 41
250 239 41
141 119 41
255 0 62
144 165 62
33 3 62
178 216 62
67 177 62
211 156 62
101 227 62
245 7 62
134 148 62
24 22 62
169 72 62
58 254 62
203 50 62
92 55 62
236 119 62
126 17 62
