P3
6 6
255
184.5 67.5 100.5
255 18.0 132.0
51.0 255 225.0
255 150.0 0.0
115.5 115.5 115.5
7.5 255 150.0
133.5 51.0 255
16.5 148.5 255
255 90.0 30.0
135.0 225.0 255
255 0.0 255
66.0 184.5 13.5
25.5 132.0 67.5
255 255 75.0
148.5 0.0 225.0
45.0 255 60.0
255 255 255
255 75.0 75.0
255 150.0 255
90.0 105.0 120.0
255 255 45.0
0.0 150.0 255
49.5 99.0 148.5
225.0 112.5 37.5
15.0 30.0 45.0
60.0 75.0 90.0
105.0 120.0 135.0
150.0 165.0 180.0
195.0 210.0 225.0
240.0 255.0 255
255 255 255
0.0 0.0 0.0
192.0 192.0 192.0
255 192.0 0.0
0.0 255 192.0
192.0 0.0 255
