P3
8 8
255
255 0.0 0.0
255 0.0 0.0
255 0.0 0.0
255 0.0 0.0
0.0 255 0.0
0.0 255 0.0
0.0 255 0.0
0.0 255 0.0
255 0.0 0.0
255 0.0 0.0
255 0.0 0.0
255 0.0 0.0
0.0 255 0.0
0.0 255 0.0
0.0 255 0.0
0.0 255 0.0
0.0 0.0 255
0.0 0.0 255
0.0 0.0 255
0.0 0.0 255
255 255 0.0
255 255 0.0
255 255 0.0
255 255 0.0
0.0 0.0 255
0.0 0.0 255
0.0 0.0 255
0.0 0.0 255
255 255 0.0
255 255 0.0
255 255 0.0
255 255 0.0
75.0 75.0 75.0
150.0 150.0 150.0
225.0 225.0 225.0
255 255 255
75.0 75.0 75.0
150.0 150.0 150.0
225.0 225.0 225.0
255 255 255
75.0 75.0 75.0
150.0 150.0 150.0
225.0 225.0 225.0
255 255 255
75.0 75.0 75.0
150.0 150.0 150.0
225.0 225.0 225.0
255 255 255
0.0 0.0 0.0
48.0 48.0 48.0
96.0 96.0 96.0
144.0 144.0 144.0
192.0 192.0 192.0
240.0 240.0 240.0
255 255 255
255 255 255
0.0 0.0 0.0
48.0 48.0 48.0
96.0 96.0 96.0
144.0 144.0 144.0
192.0 192.0 192.0
240.0 240.0 240.0
255 255 255
255 255 255
