P3
8 8
255
155 0 0
155 0 0
155 0 0
155 0 0
0 155 0
0 155 0
0 155 0
0 155 0
155 0 0
155 0 0
155 0 0
155 0 0
0 155 0
0 155 0
0 155 0
0 155 0
0 0 155
0 0 155
0 0 155
0 0 155
155 155 0
155 155 0
155 155 0
155 155 0
0 0 155
0 0 155
0 0 155
0 0 155
155 155 0
155 155 0
155 155 0
155 155 0
0 0 0
0 0 0
50 50 50
100 100 100
0 0 0
0 0 0
50 50 50
100 100 100
0 0 0
0 0 0
50 50 50
100 100 100
0 0 0
0 0 0
50 50 50
100 100 100
0 0 0
0 0 0
0 0 0
0 0 0
28 28 28
60 60 60
92 92 92
155 155 155
0 0 0
0 0 0
0 0 0
0 0 0
28 28 28
60 60 60
92 92 92
155 155 155
