P3
8 8
255
0 255 255
0 255 255
0 255 255
0 255 255
255 0 255
255 0 255
255 0 255
255 0 255
0 255 255
0 255 255
0 255 255
0 255 255
255 0 255
255 0 255
255 0 255
255 0 255
255 255 0
255 255 0
255 255 0
255 255 0
0 0 255
0 0 255
0 0 255
0 0 255
255 255 0
255 255 0
255 255 0
255 255 0
0 0 255
0 0 255
0 0 255
0 0 255
205 205 205
155 155 155
105 105 105
55 55 55
205 205 205
155 155 155
105 105 105
55 55 55
205 205 205
155 155 155
105 105 105
55 55 55
205 205 205
155 155 155
105 105 105
55 55 55
255 255 255
223 223 223
191 191 191
159 159 159
127 127 127
95 95 95
63 63 63
0 0 0
255 255 255
223 223 223
191 191 191
159 159 159
127 127 127
95 95 95
63 63 63
0 0 0
