P3
8 8
255
255 50 50
255 50 50
255 50 50
255 50 50
50 255 50
50 255 50
50 255 50
50 255 50
255 50 50
255 50 50
255 50 50
255 50 50
50 255 50
50 255 50
50 255 50
50 255 50
50 50 255
50 50 255
50 50 255
50 50 255
255 255 50
255 255 50
255 255 50
255 255 50
50 50 255
50 50 255
50 50 255
50 50 255
255 255 50
255 255 50
255 255 50
255 255 50
100 100 100
150 150 150
200 200 200
250 250 250
100 100 100
150 150 150
200 200 200
250 250 250
100 100 100
150 150 150
200 200 200
250 250 250
100 100 100
150 150 150
200 200 200
250 250 250
50 50 50
82 82 82
114 114 114
146 146 146
178 178 178
210 210 210
242 242 242
255 255 255
50 50 50
82 82 82
114 114 114
146 146 146
178 178 178
210 210 210
242 242 242
255 255 255
