P3
8 8
255
255 0 0   255 0 0   255 0 0   255 0 0   0 255 0   0 255 0   0 255 0   0 255 0
255 0 0   255 0 0   255 0 0   255 0 0   0 255 0   0 255 0   0 255 0   0 255 0

0 0 255   0 0 255   0 0 255   0 0 255   255 255 0 255 255 0 255 255 0 255 255 0
0 0 255   0 0 255   0 0 255   0 0 255   255 255 0 255 255 0 255 255 0 255 255 0

50 50 50  100 100 100 150 150 150 200 200 200  50 50 50  100 100 100 150 150 150 200 200 200
50 50 50  100 100 100 150 150 150 200 200 200  50 50 50  100 100 100 150 150 150 200 200 200

0 0 0     32 32 32   64 64 64   96 96 96   128 128 128 160 160 160 192 192 192 255 255 255
0 0 0     32 32 32   64 64 64   96 96 96   128 128 128 160 160 160 192 192 192 255 255 255